icon-themes/sifr_svg/cmd/lc_linenumberdialog.svg

<svg viewBox="0 0 24 24" xmlns="http://www.w3.org/2000/svg"><path d="m5 2c0 1.1-.9 2-2 2v2h2v5h2v-9zm6 1v2h11v-2zm0 4v2h7v-2zm4 3v1.503906a2.5 2.5 0 0 1 1 1.996094 2.5 2.5 0 0 1 -2.5 2.5 2.5 2.5 0 0 1 -1.998047-1h-1.501953v1.857422c1.371429 1.321851 2.804414 1.714844 4.115234 1.714844h2.742188l3.427734 3.427734h1.714844v-1.714844l-3.427734-3.427734v-2.742188c0-1.511964-.368607-2.743805-1.714844-4.115234zm-10 2c-1.66 0-3 1.34-3 3h2c0-.55.45-1 1-1s1 .45 1 1c0 .28-.0596875.420313-.1796875.570312l-3.8203125 4.789063v1.640625h6v-2h-3.1992188l2.5-3.199219c.3214146-.3.6992188-.850781.6992188-1.800781 0-1.66-1.34-3-3-3z" fill="#555753"/></svg>

<svg xmlns="http://www.w3.org/2000/svg" viewBox="0 0 24 24">
  <path
     style="fill:#555753"
     d="M 5 2 C 5 3.1 4.1 4 3 4 L 3 6 L 5 6 L 5 11 L 7 11 L 7 2 L 5 2 z M 11 3 L 11 5 L 22 5 L 22 3 L 11 3 z M 11 7 L 11 9 L 18 9 L 18 7 L 11 7 z M 15 10 L 15 11.503906 A 2.5 2.5 0 0 1 16 13.5 A 2.5 2.5 0 0 1 13.5 16 A 2.5 2.5 0 0 1 11.501953 15 L 10 15 L 10 16.857422 C 11.371429 18.179273 12.804414 18.572266 14.115234 18.572266 L 16.857422 18.572266 L 20.285156 22 L 22 22 L 22 20.285156 L 18.572266 16.857422 L 18.572266 14.115234 C 18.572266 12.60327 18.203659 11.371429 16.857422 10 L 15 10 z M 5 12 C 3.34 12 2 13.34 2 15 L 4 15 C 4 14.45 4.45 14 5 14 C 5.55 14 6 14.45 6 15 C 6 15.28 5.9403125 15.420313 5.8203125 15.570312 L 2 20.359375 L 2 22 L 8 22 L 8 20 L 4.8007812 20 L 7.3007812 16.800781 C 7.6221958 16.500781 8 15.95 8 15 C 8 13.34 6.66 12 5 12 z "
     />
</svg>
